assets/Mahjong red dragon/Flat/mahjong_red_dragon_flat.svg

<svg width="32" height="32" viewBox="0 0 32 32" fill="none" xmlns="http://www.w3.org/2000/svg">
<path d="M25 20.9985H7.05C5.92 20.9985 5 21.9185 5 23.0485L5 27.9501C5 29.0801 5.92 30.0001 7.05 30.0001H25C26.13 30.0001 27.05 29.0801 27.05 27.9501V23.0485C27.05 21.9185 26.13 20.9985 25 20.9985Z" fill="#A56953"/>
<path d="M24.9546 21.1025H7.04535C5.91791 21.1025 5 21.9977 5 23.1094V25.9831C5 27.0947 5.91791 27.9998 7.04535 27.9998H24.9546C26.0821 27.9998 27 27.0947 27 25.9831L27 23.1094C27 21.9977 26.0821 21.1025 24.9546 21.1025Z" fill="#8D65C5"/>
<path d="M24.9546 2H7.04535C5.91791 2 5 2.90466 5 4.01582V22.9842C5 24.0953 5.91791 25 7.04535 25H24.9546C26.0821 25 27 24.0953 27 22.9842V4.01582C27 2.90466 26.0821 2 24.9546 2Z" fill="#BEBEBE"/>
<rect x="6" y="3" width="20" height="21" rx="1" fill="#F4F4F4"/>
<path d="M20.4001 8H17.0001L17.0001 6.08C17.0001 5.48 16.6201 5 16.0201 5C15.4201 5 15.0001 5.48 15.0001 6.08L14.9932 8H11.6332C11.0332 8 10.5532 8.48 10.5532 9.08L10.5601 12.34V14.6C10.5601 15.2 11.0401 15.68 11.6401 15.68C12.1801 15.68 12.6201 15.28 12.7101 14.77H15.0001V21.8C15.0001 22.4 15.4201 22.88 16.0201 22.88C16.6201 22.88 17.0001 22.4 17.0001 21.8V14.77H19.3301C19.4101 15.29 19.8601 15.68 20.4001 15.68C21.0001 15.68 21.4801 15.2 21.4801 14.6L21.4801 9.08C21.4801 8.48 21.0001 8 20.4001 8ZM12.7732 12.26C12.7732 12.07 12.7732 10.5853 12.7732 10.5853C12.7732 10.3953 12.9332 10.2353 13.1232 10.2353H14.6432C14.8332 10.2353 14.9932 10.3953 14.9932 10.5853V12.1953C14.9932 12.3853 14.8332 12.5453 14.6432 12.5453H13.1232C12.9232 12.5453 12.7732 12.45 12.7732 12.26ZM17.3501 10.2353H18.8701C19.0601 10.2353 19.2201 10.3953 19.2201 10.5853V12.1953C19.2201 12.3853 19.0601 12.5453 18.8701 12.5453H17.3501C17.1601 12.5453 17.0001 12.3853 17.0001 12.1953V10.5853C17.0001 10.3853 17.1601 10.2353 17.3501 10.2353Z" fill="#F70A8D"/>
</svg>

<svg xmlns="http://www.w3.org/2000/svg" width="32" height="32" fill="none"><path fill="#A56953" d="M25 20.998H7.05c-1.13 0-2.05.92-2.05 2.05v4.902C5 29.08 5.92 30 7.05 30H25c1.13 0 2.05-.92 2.05-2.05V23.05c0-1.13-.92-2.05-2.05-2.05Z"/><path fill="#8D65C5" d="M24.955 21.102H7.045C5.918 21.102 5 21.998 5 23.11v2.874C5 27.095 5.918 28 7.045 28h17.91C26.082 28 27 27.095 27 25.983V23.11c0-1.111-.918-2.007-2.045-2.007Z"/><path fill="#BEBEBE" d="M24.955 2H7.045C5.918 2 5 2.905 5 4.016v18.968C5 24.095 5.918 25 7.045 25h17.91C26.082 25 27 24.095 27 22.984V4.016C27 2.905 26.082 2 24.955 2Z"/><rect width="20" height="21" x="6" y="3" fill="#F4F4F4" rx="1"/><path fill="#F70A8D" d="M20.4 8H17V6.08c0-.6-.38-1.08-.98-1.08S15 5.48 15 6.08L14.993 8h-3.36c-.6 0-1.08.48-1.08 1.08l.007 3.26v2.26c0 .6.48 1.08 1.08 1.08.54 0 .98-.4 1.07-.91H15v7.03c0 .6.42 1.08 1.02 1.08.6 0 .98-.48.98-1.08v-7.03h2.33c.08.52.53.91 1.07.91.6 0 1.08-.48 1.08-1.08V9.08C21.48 8.48 21 8 20.4 8Zm-7.627 4.26v-1.675c0-.19.16-.35.35-.35h1.52c.19 0 .35.16.35.35v1.61c0 .19-.16.35-.35.35h-1.52c-.2 0-.35-.095-.35-.285Zm4.577-2.025h1.52c.19 0 .35.16.35.35v1.61c0 .19-.16.35-.35.35h-1.52c-.19 0-.35-.16-.35-.35v-1.61c0-.2.16-.35.35-.35Z"/></svg>
